X: 28105
T: Mr. O'Connor
R: waltz
M: 3/4
K: Gminor
d2G2A2|BcBA G2|g2G2A2|BABc d2|
de c2d2|dcBA d2|dcBA G2|F2A2GF|
G2B2g2|gdga b2|BdBd G2|d'3c' b2|
AcAc F2|c'2b2a2|abag a2|{g}f4 d2|
G2B2A2|G2c2B2|A2d2c2|B2e2d2|
dcBA d2|cBAG A2|D2G2F2|G6:|
|:DFGA B2|d3cB2|A2B2G2|F2d2D2|
gfga b2|a2f2c'2|d'bd'c'b2|a4gf|
gagf g2|B2A2G2|fgf=e f2|BcBc A2|
dedc d2|G2B2A2|G2c2 BA|B4 c2|
d2 BdBd|f2 FfFf|g2 dgdg|a2 AaAa|
babc' d'2|c'bab c'2|bg d2 ^f2|g6:|

